X:0744
M:C|
L:1/8
Q:1/4=120
K:D
a/g/|f>ad>a b>da>d|g>ef>d Be ea/g/|f>ad>a b>da>d|g>ea>g fdd
a/g/|f>ad>a b>da>d|g>ef>d Be ea/g/|f>ag>b a>df>d|B>eg>e fdd|]

